circle-expand.svg

<svg fill="currentColor" viewBox="0 0 24 24"><path d="m16 4 4 4V4m0 12-4 4h4M8 20l-4-4v4M4 8l4-4H4m12.95 3.05a7.007 7.007 0 0 0-9.9 0 7.007 7.007 0 0 0 0 9.9 7.007 7.007 0 0 0 9.9 0c2.73-2.73 2.73-7.16 0-9.9m-1.1 8.8a5.4 5.4 0 0 1-7.7 0 5.4 5.4 0 0 1 0-7.7 5.4 5.4 0 0 1 7.7 0 5.4 5.4 0 0 1 0 7.7"/></svg>

<svg  viewBox="0 0 24 24" fill="currentColor"><path  d="M16,4L20,8V4M20,16L16,20H20M8,20L4,16V20M4,8L8,4H4M16.95,7.05C14.22,4.32 9.78,4.32 7.05,7.05C4.32,9.78 4.32,14.22 7.05,16.95C9.78,19.68 14.22,19.68 16.95,16.95C19.68,14.22 19.68,9.79 16.95,7.05M15.85,15.85C13.72,18 10.28,18 8.15,15.85C6,13.72 6,10.28 8.15,8.15C10.28,6 13.72,6 15.85,8.15C18,10.28 18,13.72 15.85,15.85Z"/></svg>
